X:667
M:C|
L:1/8
K:C
E|C2EC GCEG|AcEc dDDE|C2EC GCEG|ceAc GCC:|
e|~c2 ec gcec|GcEc dDDe|~c2 ec gcec|AcGE GCCe|~c2 ec gcec|

